icons/paste-24.svg

<svg xmlns="http://www.w3.org/2000/svg" width="24" height="24" viewBox="0 0 24 24"><path d="M5.962 2.513a.75.75 0 01-.475.949l-.816.272a.25.25 0 00-.171.237V21.25c0 .138.112.25.25.25h14.5a.25.25 0 00.25-.25V3.97a.25.25 0 00-.17-.236l-.817-.272a.75.75 0 01.474-1.424l.816.273A1.751 1.751 0 0121 3.97v17.28A1.75 1.75 0 0119.25 23H4.75A1.75 1.75 0 013 21.25V3.97a1.75 1.75 0 011.197-1.66l.816-.272a.75.75 0 01.949.475z"/><path d="M7 1.75C7 .784 7.784 0 8.75 0h6.5C16.216 0 17 .784 17 1.75v1.5A1.75 1.75 0 0115.25 5h-6.5A1.75 1.75 0 017 3.25zm1.75-.25a.25.25 0 00-.25.25v1.5c0 .138.112.25.25.25h6.5a.25.25 0 00.25-.25v-1.5a.25.25 0 00-.25-.25z"/></svg>

<svg xmlns="http://www.w3.org/2000/svg" width="24" height="24" viewBox="0 0 24 24">
  <defs/>
  <path d="M5.962,2.513 C6.025,2.702 6.01,2.908 5.921,3.086 C5.832,3.264 5.676,3.399 5.487,3.462 L4.671,3.734 C4.569,3.768 4.5,3.863 4.5,3.971 L4.5,21.25 C4.5,21.388 4.612,21.5 4.75,21.5 L19.25,21.5 C19.388,21.5 19.5,21.388 19.5,21.25 L19.5,3.97 C19.5,3.863 19.431,3.768 19.33,3.734 L18.513,3.462 C18.12,3.331 17.907,2.906 18.038,2.513 C18.169,2.12 18.594,1.907 18.987,2.038 L19.803,2.311 C20.517,2.549 20.999,3.217 21,3.97 L21,21.25 C21,22.216 20.216,23 19.25,23 L4.75,23 C3.784,23 3,22.216 3,21.25 L3,3.97 C3,3.217 3.482,2.548 4.197,2.31 L5.013,2.038 C5.202,1.975 5.408,1.99 5.586,2.079 C5.764,2.168 5.899,2.324 5.962,2.513 Z"/>
  <path d="M7,1.75 C7,0.784 7.784,0 8.75,0 L15.25,0 C16.216,0 17,0.784 17,1.75 L17,3.25 C17,4.216 16.216,5 15.25,5 L8.75,5 C7.784,5 7,4.216 7,3.25 Z M8.75,1.5 C8.612,1.5 8.5,1.612 8.5,1.75 L8.5,3.25 C8.5,3.388 8.612,3.5 8.75,3.5 L15.25,3.5 C15.388,3.5 15.5,3.388 15.5,3.25 L15.5,1.75 C15.5,1.612 15.388,1.5 15.25,1.5 Z"/>
</svg>
